X: 43176
T: Wise Fool, The
R: reel
M: 4/4
K: Edorian
B,EEE B,EGE|FBBB ABde|fedc dBAF|BFAF EDB,A,|
B,EEE B,EGE|FBBB ABde|f2 fg fedB|AFdF FE E2:|
geBe geBe|fedc defa|gbge fafd|edef edBd|
eBBA BcdB|AFFF dFAF|E3 F G3 A|1 Bded e3 f:|2 Bded e4||

